X:173
T: ES WAR EIN STOLZES MUELLERWEIB
N: Z0172
O: Europa, Mitteleuropa, Deutschland, Westerwald
R: Erzaehlung, lustige Romanze
M: 2/4
L: 1/16
K: G
D2 | D2E2F2G2 | A2B2cB
A2 | G2G2FGAF | G4z2
FG | A2A2AB^cd | A4AG
FG | A2ABcBA2 | G4GF
EF | D2E2F2G2 | A2B2c2
BA | G2G2FGAF | G4z2

